assets/imagens/gmail_icon.svg

<svg fill="#000000" xmlns="http://www.w3.org/2000/svg"  viewBox="0 0 50 50" width="100px" height="100px"><path d="M 5.5 7 C 3.03125 7 1.011719 9.015625 1 11.484375 C 1 11.484375 1 11.488281 1 11.492188 C 1 11.496094 1 11.496094 1 11.5 L 1 38.5 C 1 40.972656 3.027344 43 5.5 43 L 44.5 43 C 46.972656 43 49 40.972656 49 38.5 L 49 11.5 C 49 11.496094 49 11.496094 49 11.492188 C 49 11.488281 49 11.484375 49 11.484375 C 48.988281 9.015625 46.96875 7 44.5 7 Z M 8.101563 9 L 41.902344 9 L 25 20.78125 Z M 4.773438 9.117188 L 25 23.21875 L 45.230469 9.117188 C 46.253906 9.425781 46.992188 10.355469 47 11.488281 C 46.996094 11.699219 46.78125 12.121094 46.46875 12.460938 C 46.152344 12.804688 45.84375 13.019531 45.84375 13.019531 L 45.839844 13.027344 L 25 27.777344 L 4.160156 13.027344 L 4.15625 13.019531 C 4.15625 13.019531 3.847656 12.804688 3.53125 12.460938 C 3.21875 12.121094 3.003906 11.699219 3 11.488281 C 3.007813 10.355469 3.746094 9.425781 4.773438 9.117188 Z M 3 14.652344 C 3 14.652344 3.007813 14.660156 3.007813 14.660156 L 3.015625 14.664063 L 3.015625 14.667969 L 6 16.777344 L 6 41 L 5.5 41 C 4.109375 41 3 39.890625 3 38.5 Z M 47 14.652344 L 47 38.5 C 47 39.890625 45.890625 41 44.5 41 L 44 41 L 44 16.777344 L 46.984375 14.667969 L 46.984375 14.664063 C 46.984375 14.664063 47 14.652344 47 14.652344 Z M 8 18.191406 L 25 30.222656 L 42 18.191406 L 42 41 L 8 41 Z"/></svg>

<svg version="1.1" xmlns="http://www.w3.org/2000/svg" xmlns:xlink="http://www.w3.org/1999/xlink" width="100px" height="100px" viewBox="0,0,256,256"><g fill="#ffffff" fill-rule="nonzero" stroke="none" stroke-width="1" stroke-linecap="butt" stroke-linejoin="miter" stroke-miterlimit="10" stroke-dasharray="" stroke-dashoffset="0" font-family="none" font-weight="none" font-size="none" text-anchor="none" style="mix-blend-mode: normal"><g transform="scale(5.12,5.12)"><path d="M5.5,7c-2.46875,0 -4.48828,2.01563 -4.5,4.48438c0,0 0,0.00391 0,0.00781c0,0.00391 0,0.00391 0,0.00781v27c0,2.47266 2.02734,4.5 4.5,4.5h39c2.47266,0 4.5,-2.02734 4.5,-4.5v-27c0,-0.00391 0,-0.00391 0,-0.00781c0,-0.00391 0,-0.00781 0,-0.00781c-0.01172,-2.46875 -2.03125,-4.48437 -4.5,-4.48437zM8.10156,9h33.80078l-16.90234,11.78125zM4.77344,9.11719l20.22656,14.10156l20.23047,-14.10156c1.02344,0.30859 1.76172,1.23828 1.76953,2.37109c-0.00391,0.21094 -0.21875,0.63281 -0.53125,0.97266c-0.31641,0.34375 -0.625,0.55859 -0.625,0.55859l-0.00391,0.00781l-20.83984,14.75l-20.83984,-14.75l-0.00391,-0.00781c0,0 -0.30859,-0.21484 -0.625,-0.55859c-0.3125,-0.33984 -0.52734,-0.76172 -0.53125,-0.97266c0.00781,-1.13281 0.74609,-2.0625 1.77344,-2.37109zM3,14.65234l0.00781,0.00781l0.00781,0.00391v0.00391l2.98438,2.10938v24.22266h-0.5c-1.39062,0 -2.5,-1.10937 -2.5,-2.5zM47,14.65234v23.84766c0,1.39063 -1.10937,2.5 -2.5,2.5h-0.5v-24.22266l2.98438,-2.10937v-0.00391zM8,18.19141l17,12.03125l17,-12.03125v22.80859h-34z"></path></g></g></svg>
